X:54
T:Kesh Jig
R:jig
M:6/8
L:1/8
Z:Jaya R. Carl, March 9, 2004
K:G
G3 GAB | A3  ABd | edd  gdd | edB  dBA |
G3 GAB | ABA ABd | edd  gdB |1 AGF  G2D :|2 AGF G2A |:
B3 dBd | ege  dBG | BAB dBG | ABA AGA |
B3 dBd | ege  dBd | g3  aga |1 bgg g2A :|2 bgf g3 |]
